assets/sponsor-badge.svg

<svg width="107" height="28" viewBox="0 0 107 28" fill="none" xmlns="http://www.w3.org/2000/svg">
<g clip-path="url(#clip0_115_32)">
<path d="M106.75 0H0V28H106.75V0Z" fill="#21262D"/>
<path d="M46.8213 15.7148C46.8213 16.431 46.5169 17.0137 45.9082 17.4629C45.3027 17.9089 44.4792 18.1318 43.4375 18.1318C42.8353 18.1318 42.3096 18.0798 41.8604 17.9756C41.4144 17.8682 40.9961 17.7331 40.6055 17.5703V15.8271H40.8105C41.1979 16.1364 41.6309 16.374 42.1094 16.54C42.5911 16.7061 43.0534 16.7891 43.4961 16.7891C43.61 16.7891 43.7598 16.7793 43.9453 16.7598C44.1309 16.7402 44.2822 16.7077 44.3994 16.6621C44.5426 16.6035 44.6598 16.5303 44.751 16.4424C44.8454 16.3545 44.8926 16.2243 44.8926 16.0518C44.8926 15.8923 44.8242 15.7555 44.6875 15.6416C44.554 15.5244 44.3571 15.4349 44.0967 15.373C43.8232 15.3079 43.5335 15.2477 43.2275 15.1924C42.9248 15.1338 42.64 15.0605 42.373 14.9727C41.7611 14.7741 41.32 14.5055 41.0498 14.167C40.7829 13.8252 40.6494 13.402 40.6494 12.8975C40.6494 12.2204 40.9521 11.6686 41.5576 11.2422C42.1663 10.8125 42.9476 10.5977 43.9014 10.5977C44.3799 10.5977 44.8519 10.6449 45.3174 10.7393C45.7861 10.8304 46.1914 10.946 46.5332 11.0859V12.7607H46.333C46.04 12.5264 45.6803 12.3311 45.2539 12.1748C44.8307 12.0153 44.3978 11.9355 43.9551 11.9355C43.7988 11.9355 43.6426 11.9469 43.4863 11.9697C43.3333 11.9893 43.1852 12.0283 43.042 12.0869C42.915 12.1357 42.806 12.2106 42.7148 12.3115C42.6237 12.4092 42.5781 12.5215 42.5781 12.6484C42.5781 12.8405 42.6514 12.9886 42.7979 13.0928C42.9443 13.1937 43.221 13.2865 43.6279 13.3711C43.8949 13.4264 44.1504 13.4801 44.3945 13.5322C44.6419 13.5843 44.9072 13.6559 45.1904 13.7471C45.7471 13.9294 46.1572 14.1784 46.4209 14.4941C46.6878 14.8066 46.8213 15.2135 46.8213 15.7148ZM54.1113 13.0244C54.1113 13.3499 54.0544 13.6689 53.9404 13.9814C53.8265 14.2907 53.6637 14.5511 53.4521 14.7627C53.1624 15.0492 52.8385 15.2656 52.4805 15.4121C52.1257 15.5586 51.6829 15.6318 51.1523 15.6318H49.9854V18H48.1104V10.7295H51.1963C51.6585 10.7295 52.0475 10.7702 52.3633 10.8516C52.6823 10.9297 52.9639 11.0485 53.208 11.208C53.501 11.4001 53.724 11.6458 53.877 11.9453C54.0332 12.2448 54.1113 12.6045 54.1113 13.0244ZM52.1729 13.0684C52.1729 12.8633 52.1175 12.6875 52.0068 12.541C51.8962 12.3913 51.7676 12.2871 51.6211 12.2285C51.4258 12.1504 51.2354 12.1081 51.0498 12.1016C50.8643 12.0918 50.6169 12.0869 50.3076 12.0869H49.9854V14.2646H50.5225C50.8415 14.2646 51.1035 14.2451 51.3086 14.2061C51.5169 14.167 51.6911 14.0889 51.8311 13.9717C51.9515 13.8675 52.0378 13.7438 52.0898 13.6006C52.1452 13.4541 52.1729 13.2767 52.1729 13.0684ZM62.5146 14.3672C62.5146 15.526 62.1826 16.4473 61.5186 17.1309C60.8545 17.8112 59.9365 18.1514 58.7646 18.1514C57.596 18.1514 56.6797 17.8112 56.0156 17.1309C55.3516 16.4473 55.0195 15.526 55.0195 14.3672C55.0195 13.1986 55.3516 12.2757 56.0156 11.5986C56.6797 10.9183 57.596 10.5781 58.7646 10.5781C59.93 10.5781 60.8464 10.9183 61.5137 11.5986C62.181 12.2757 62.5146 13.1986 62.5146 14.3672ZM60.0293 16.208C60.2116 15.9867 60.3467 15.7262 60.4346 15.4268C60.5225 15.124 60.5664 14.7692 60.5664 14.3623C60.5664 13.9261 60.516 13.555 60.415 13.249C60.3141 12.943 60.1823 12.6956 60.0195 12.5068C59.8535 12.3115 59.6615 12.1699 59.4434 12.082C59.2285 11.9941 59.0039 11.9502 58.7695 11.9502C58.5319 11.9502 58.3073 11.9925 58.0957 12.0771C57.8874 12.1618 57.6953 12.3018 57.5195 12.4971C57.3568 12.6794 57.2233 12.9316 57.1191 13.2539C57.0182 13.5729 56.9678 13.944 56.9678 14.3672C56.9678 14.8001 57.0166 15.1696 57.1143 15.4756C57.2152 15.7783 57.347 16.0257 57.5098 16.2178C57.6725 16.4098 57.863 16.5514 58.0811 16.6426C58.2992 16.7337 58.5286 16.7793 58.7695 16.7793C59.0104 16.7793 59.2399 16.7337 59.458 16.6426C59.6761 16.5482 59.8665 16.4033 60.0293 16.208ZM70.5615 18H68.7549L65.6689 13.0098V18H63.9502V10.7295H66.1914L68.8428 14.8945V10.7295H70.5615V18ZM78.2373 15.7148C78.2373 16.431 77.9329 17.0137 77.3242 17.4629C76.7188 17.9089 75.8952 18.1318 74.8535 18.1318C74.2513 18.1318 73.7256 18.0798 73.2764 17.9756C72.8304 17.8682 72.4121 17.7331 72.0215 17.5703V15.8271H72.2266C72.6139 16.1364 73.0469 16.374 73.5254 16.54C74.0072 16.7061 74.4694 16.7891 74.9121 16.7891C75.026 16.7891 75.1758 16.7793 75.3613 16.7598C75.5469 16.7402 75.6982 16.7077 75.8154 16.6621C75.9587 16.6035 76.0758 16.5303 76.167 16.4424C76.2614 16.3545 76.3086 16.2243 76.3086 16.0518C76.3086 15.8923 76.2402 15.7555 76.1035 15.6416C75.9701 15.5244 75.7731 15.4349 75.5127 15.373C75.2393 15.3079 74.9495 15.2477 74.6436 15.1924C74.3408 15.1338 74.056 15.0605 73.7891 14.9727C73.1771 14.7741 72.736 14.5055 72.4658 14.167C72.1989 13.8252 72.0654 13.402 72.0654 12.8975C72.0654 12.2204 72.3682 11.6686 72.9736 11.2422C73.5824 10.8125 74.3636 10.5977 75.3174 10.5977C75.7959 10.5977 76.2679 10.6449 76.7334 10.7393C77.2021 10.8304 77.6074 10.946 77.9492 11.0859V12.7607H77.749C77.4561 12.5264 77.0964 12.3311 76.6699 12.1748C76.2467 12.0153 75.8138 11.9355 75.3711 11.9355C75.2148 11.9355 75.0586 11.9469 74.9023 11.9697C74.7493 11.9893 74.6012 12.0283 74.458 12.0869C74.3311 12.1357 74.222 12.2106 74.1309 12.3115C74.0397 12.4092 73.9941 12.5215 73.9941 12.6484C73.9941 12.8405 74.0674 12.9886 74.2139 13.0928C74.3604 13.1937 74.637 13.2865 75.0439 13.3711C75.3109 13.4264 75.5664 13.4801 75.8105 13.5322C76.0579 13.5843 76.3232 13.6559 76.6064 13.7471C77.1631 13.9294 77.5732 14.1784 77.8369 14.4941C78.1038 14.8066 78.2373 15.2135 78.2373 15.7148ZM86.5967 14.3672C86.5967 15.526 86.2646 16.4473 85.6006 17.1309C84.9365 17.8112 84.0186 18.1514 82.8467 18.1514C81.6781 18.1514 80.7617 17.8112 80.0977 17.1309C79.4336 16.4473 79.1016 15.526 79.1016 14.3672C79.1016 13.1986 79.4336 12.2757 80.0977 11.5986C80.7617 10.9183 81.6781 10.5781 82.8467 10.5781C84.012 10.5781 84.9284 10.9183 85.5957 11.5986C86.263 12.2757 86.5967 13.1986 86.5967 14.3672ZM84.1113 16.208C84.2936 15.9867 84.4287 15.7262 84.5166 15.4268C84.6045 15.124 84.6484 14.7692 84.6484 14.3623C84.6484 13.9261 84.598 13.555 84.4971 13.249C84.3962 12.943 84.2643 12.6956 84.1016 12.5068C83.9355 12.3115 83.7435 12.1699 83.5254 12.082C83.3105 11.9941 83.0859 11.9502 82.8516 11.9502C82.6139 11.9502 82.3893 11.9925 82.1777 12.0771C81.9694 12.1618 81.7773 12.3018 81.6016 12.4971C81.4388 12.6794 81.3053 12.9316 81.2012 13.2539C81.1003 13.5729 81.0498 13.944 81.0498 14.3672C81.0498 14.8001 81.0986 15.1696 81.1963 15.4756C81.2972 15.7783 81.429 16.0257 81.5918 16.2178C81.7546 16.4098 81.945 16.5514 82.1631 16.6426C82.3812 16.7337 82.6107 16.7793 82.8516 16.7793C83.0924 16.7793 83.3219 16.7337 83.54 16.6426C83.7581 16.5482 83.9486 16.4033 84.1113 16.208ZM92.1094 12.9561C92.1094 12.7738 92.0719 12.6175 91.9971 12.4873C91.9222 12.3571 91.7936 12.2546 91.6113 12.1797C91.4844 12.1276 91.3363 12.0967 91.167 12.0869C90.9977 12.0739 90.8008 12.0674 90.5762 12.0674H89.8975V14.0254H90.4736C90.7731 14.0254 91.0238 14.0107 91.2256 13.9814C91.4274 13.9521 91.5967 13.8854 91.7334 13.7812C91.8636 13.6803 91.958 13.5697 92.0166 13.4492C92.0785 13.3255 92.1094 13.1611 92.1094 12.9561ZM95.0342 18H92.7441L90.7617 15.334H89.8975V18H88.0322V10.7295H91.1768C91.6064 10.7295 91.9759 10.7539 92.2852 10.8027C92.5944 10.8516 92.8841 10.9574 93.1543 11.1201C93.4277 11.2829 93.6442 11.4945 93.8037 11.7549C93.9665 12.012 94.0479 12.3359 94.0479 12.7266C94.0479 13.2637 93.9225 13.7015 93.6719 14.04C93.4245 14.3786 93.0697 14.6602 92.6074 14.8848L95.0342 18Z" fill="white"/>
<path d="M24.625 3.49902C22.305 3.49902 20.271 4.70202 19 6.52902C17.729 4.70202 15.695 3.49902 13.375 3.49902C10.129 3.49902 7 6.25302 7 10.249C7 14.524 10.068 18.096 12.828 20.476C14.5616 21.9578 16.4436 23.2567 18.444 24.352L18.472 24.369L18.48 24.372L18.479 24.375C18.642 24.46 18.821 24.501 19 24.5C19.179 24.501 19.358 24.459 19.521 24.375L19.52 24.372L19.528 24.369L19.556 24.352C21.5564 23.2567 23.4384 21.9578 25.172 20.476C27.932 18.096 31 14.524 31 10.249C31 6.25302 27.871 3.49902 24.625 3.49902V3.49902ZM23.706 18.774C22.2454 20.0239 20.6708 21.134 19.003 22.09L18.999 22.088L18.995 22.09C17.3278 21.1331 15.7533 20.023 14.292 18.774C11.615 16.467 9.245 13.476 9.245 10.251C9.245 7.49702 11.366 5.75102 13.37 5.75102C15.43 5.75102 17.284 7.23002 17.914 9.43502C18.057 9.93002 18.51 10.232 19 10.231C19.49 10.232 19.943 9.92902 20.085 9.43502C20.715 7.23002 22.569 5.75102 24.629 5.75102C26.633 5.75102 28.754 7.49702 28.754 10.251C28.754 13.476 26.384 16.467 23.706 18.774V18.774Z" fill="#BD1A1A"/>
</g>
<defs>
<clipPath id="clip0_115_32">
<rect width="106.75" height="28" rx="4" fill="white"/>
</clipPath>
</defs>
</svg>

<svg width="107" height="28" fill="none" xmlns="http://www.w3.org/2000/svg"><g clip-path="url(#a)"><path d="M106.75 0H0v28h106.75V0Z" fill="#21262D"/><path d="M46.821 15.715c0 .716-.304 1.299-.913 1.748-.605.446-1.429.669-2.47.669a7.04 7.04 0 0 1-1.578-.156 8.321 8.321 0 0 1-1.255-.406v-1.743h.206c.387.31.82.547 1.298.713.482.166.944.25 1.387.25a4.5 4.5 0 0 0 .45-.03c.185-.02.336-.052.453-.098a1.1 1.1 0 0 0 .352-.22c.094-.087.142-.218.142-.39a.518.518 0 0 0-.206-.41c-.133-.118-.33-.207-.59-.269a16.203 16.203 0 0 0-.87-.18 6.984 6.984 0 0 1-.854-.22c-.612-.199-1.053-.468-1.323-.806-.267-.342-.4-.765-.4-1.27 0-.677.302-1.228.908-1.655.608-.43 1.39-.644 2.343-.644.479 0 .95.047 1.416.141.47.091.874.207 1.216.347v1.675h-.2a3.817 3.817 0 0 0-1.08-.586 3.655 3.655 0 0 0-1.298-.24c-.156 0-.312.012-.469.035-.153.02-.3.058-.444.117a.842.842 0 0 0-.327.225.48.48 0 0 0-.137.336c0 .193.073.34.22.445.146.1.423.194.83.278.267.055.522.11.767.161.247.052.512.124.795.215.557.182.967.431 1.23.747.268.313.401.72.401 1.22Zm7.29-2.69c0 .325-.057.644-.17.956-.114.31-.277.57-.489.782-.29.286-.613.503-.971.65-.355.146-.798.219-1.329.219h-1.167V18H48.11v-7.27h3.086c.462 0 .852.04 1.167.122.32.078.6.197.845.356.293.192.516.438.669.737.156.3.234.66.234 1.08Zm-1.938.043a.85.85 0 0 0-.166-.527.895.895 0 0 0-.386-.313 1.695 1.695 0 0 0-.571-.126c-.186-.01-.433-.015-.742-.015h-.323v2.178h.538c.319 0 .58-.02.786-.059.208-.039.382-.117.522-.234a.884.884 0 0 0 .259-.371c.055-.147.083-.324.083-.533Zm10.342 1.3c0 1.158-.332 2.08-.996 2.763-.664.68-1.582 1.02-2.754 1.02-1.169 0-2.085-.34-2.75-1.02-.663-.684-.995-1.605-.995-2.764 0-1.168.332-2.091.996-2.768.664-.68 1.58-1.02 2.749-1.02 1.165 0 2.081.34 2.749 1.02.667.677 1 1.6 1 2.768Zm-2.486 1.84c.183-.221.318-.482.406-.781.087-.303.131-.658.131-1.065 0-.436-.05-.807-.151-1.113a2.16 2.16 0 0 0-.395-.742 1.476 1.476 0 0 0-.577-.425 1.763 1.763 0 0 0-.673-.132c-.238 0-.463.043-.674.127a1.58 1.58 0 0 0-.576.42c-.163.182-.297.435-.4.757-.102.319-.152.69-.152 1.113 0 .433.049.803.146 1.109.101.302.233.55.396.742.163.192.353.333.571.425.218.09.448.136.688.136.241 0 .47-.045.689-.136a1.53 1.53 0 0 0 .571-.435ZM70.561 18h-1.806l-3.086-4.99V18H63.95v-7.27h2.241l2.652 4.165V10.73h1.718V18Zm7.676-2.285c0 .716-.304 1.299-.913 1.748-.605.446-1.429.669-2.47.669a7.04 7.04 0 0 1-1.578-.156 8.321 8.321 0 0 1-1.254-.406v-1.743h.205c.387.31.82.547 1.298.713.482.166.944.25 1.387.25a4.5 4.5 0 0 0 .45-.03c.185-.02.336-.052.453-.098a1.1 1.1 0 0 0 .352-.22c.094-.087.142-.218.142-.39a.518.518 0 0 0-.206-.41c-.133-.118-.33-.207-.59-.269a16.198 16.198 0 0 0-.87-.18 6.975 6.975 0 0 1-.854-.22c-.612-.199-1.053-.468-1.323-.806-.267-.342-.4-.765-.4-1.27 0-.677.302-1.228.908-1.655.608-.43 1.39-.644 2.343-.644.479 0 .95.047 1.416.141.47.091.874.207 1.216.347v1.675h-.2a3.815 3.815 0 0 0-1.08-.586 3.655 3.655 0 0 0-1.298-.24c-.156 0-.312.012-.469.035-.153.02-.3.058-.444.117a.842.842 0 0 0-.327.225.48.48 0 0 0-.137.336c0 .193.073.34.22.445.146.1.423.194.83.278.267.055.522.11.767.161.247.052.512.124.795.215.557.182.967.431 1.23.747.268.313.401.72.401 1.22Zm8.36-1.348c0 1.159-.332 2.08-.996 2.764-.665.68-1.582 1.02-2.754 1.02-1.169 0-2.085-.34-2.75-1.02-.663-.684-.995-1.605-.995-2.764 0-1.168.332-2.091.996-2.768.664-.68 1.58-1.02 2.749-1.02 1.165 0 2.081.34 2.749 1.02.667.677 1 1.6 1 2.768Zm-2.486 1.841c.183-.221.318-.482.406-.781.088-.303.131-.658.131-1.065 0-.436-.05-.807-.15-1.113a2.161 2.161 0 0 0-.396-.742 1.477 1.477 0 0 0-.577-.425 1.763 1.763 0 0 0-.673-.132c-.238 0-.463.043-.674.127-.209.085-.4.225-.576.42-.163.182-.297.435-.4.757-.102.319-.152.69-.152 1.113 0 .433.049.803.146 1.109.101.302.233.55.396.742.163.192.353.333.571.425.218.09.448.136.689.136.24 0 .47-.045.688-.136a1.53 1.53 0 0 0 .571-.435Zm7.998-3.252a.926.926 0 0 0-.112-.469c-.075-.13-.203-.232-.386-.307a1.377 1.377 0 0 0-.444-.093 7.826 7.826 0 0 0-.59-.02h-.68v1.958h.577c.3 0 .55-.014.752-.044.201-.029.37-.096.507-.2.13-.1.225-.211.284-.332a1.11 1.11 0 0 0 .092-.493ZM95.034 18h-2.29l-1.982-2.666h-.865V18h-1.865v-7.27h3.145c.43 0 .799.024 1.108.073.31.049.6.154.87.317.273.163.49.375.649.635.162.257.244.58.244.972 0 .537-.126.974-.376 1.313-.248.339-.602.62-1.065.845L95.034 18Z" fill="#fff"/><path d="M24.625 3.499c-2.32 0-4.354 1.203-5.625 3.03-1.271-1.827-3.305-3.03-5.625-3.03C10.129 3.499 7 6.253 7 10.249c0 4.275 3.068 7.847 5.828 10.227a33.136 33.136 0 0 0 5.616 3.876l.028.017.008.003-.001.003c.163.085.342.126.521.125.179.001.358-.041.521-.125l-.001-.003.008-.003.028-.017c2-1.095 3.882-2.394 5.616-3.876C27.932 18.096 31 14.524 31 10.249c0-3.996-3.129-6.75-6.375-6.75Zm-.919 15.275a30.763 30.763 0 0 1-4.703 3.316l-.004-.002-.004.002a30.953 30.953 0 0 1-4.703-3.316c-2.677-2.307-5.047-5.298-5.047-8.523 0-2.754 2.121-4.5 4.125-4.5 2.06 0 3.914 1.479 4.544 3.684.143.495.596.797 1.086.796.49.001.943-.302 1.085-.796.63-2.205 2.484-3.684 4.544-3.684 2.004 0 4.125 1.746 4.125 4.5 0 3.225-2.37 6.216-5.048 8.523Z" fill="#BD1A1A"/></g><defs><clipPath id="a"><rect width="106.75" height="28" rx="4" fill="#fff"/></clipPath></defs></svg>
